X: 24401
T: Lovely Nancy
R: waltz
M: 3/4
K: Bminor
|:AG|F2 F2 FA|G2 G2 GB|A2 fd cA|G4 AG|
F2 F2 FA|G2 G2 (3Bcd|cd cA GA|F4:|
|:AB|c2 c2 fd|c4 AB|c2 c2 fA|G4 AG|
F2 F2 FA|G2 G2 (3Bcd|cd cA GA|F4:|

